X: 1
T:Paddy Carty's
R:reel
D:Dessie Wilkinson, Gerry O'Connor & Eithne N\'i Uallachain
Z:id:hn-reel-754
M:C|
K:D
FEDF ~A3B|d2fd efdB|BAFB ABdf|1 afge fdd2:|2 afeg fdd2||
Adfd adfd|Adfd (3Bcd ec|Adfd adfd|ABde fddc|
defg a3b|afed (3Bcd eg|fedB BAFB|ABde faa2||
